!!!COM: Scriabin, Alexander
!!!OTL@@FR: Etude
!!!OTL@@EN:
!!!OPR@@FR: 8 Etudes
!!!OPR@@EN:
!!!OPS: 42
!!!ONM: 6
!!!ODT: 1903
!!!AGN: Etude
**kern	**kern	**dynam
*staff2	*staff1	*staff1/2
*Ipiano	*Ipiano	*
*clefF4	*clefG2	*
*k[b-e-a-d-g-]	*k[b-e-a-d-g-]	*
*D-:	*D-:	*
*M3/4	*M3/4	*
=1	=1	=1
*	*^	*
12G-L	4b-	20b-LL	.
.	.	20c 20f	.
12AA-	.	.	.
.	.	20e-	.
.	.	20F	.
12EE-J	.	.	.
.	.	20G-JJ	.
12EEE-L	[4b-	20b-LL	.
.	.	20c 20f	.
12EE-	.	.	.
.	.	20e-	.
.	.	20F	.
12AA-J	.	.	.
.	.	20G-JJ	.
12G-L	8..b-L]	20b-LL	.
.	.	20c 20f	.
12AA-	.	.	.
.	.	20e-	.
.	.	20F	.
12EE-J	.	.	.
.	.	20G-JJ	.
.	32b-Jkk	.	.
=2	=2	=2	=2
12FL	4b-	20b-LL	.
.	.	20Bn 20e-	.
12AA-	.	.	.
.	.	20dn	.
.	.	20En	.
12EE-J	.	.	.
.	.	20FJJ	.
12EEE-L	4gn	20gLL	.
.	.	20B 20e-	.
12EE-	.	.	.
.	.	20d	.
.	.	20E	.
12AA-J	.	.	.
.	.	20FJJ	.
12FL	4a-	20a-LL	.
.	.	20B 20e-	.
12AA-	.	.	.
.	.	20d	.
.	.	20E	.
12EE-J	.	.	.
.	.	20FJJ	.
=3	=3	=3	=3
12G-L	10b-L	20b-LL	.
.	.	20c	.
12AA-	.	.	.
.	10dn	20d	.
.	.	20G-	.
12EE-J	.	.	.
.	20e-Jk	20e-JJ	.
12EEE-L	[4b-	20b-LL	.
.	.	20c 20f	.
12EE-	.	.	.
.	.	20e-	.
.	.	20F	.
12AA-J	.	.	.
.	.	20G-JJ	.
12G-L	8..b-L]	20b-LL	.
.	.	20c 20f	.
12AA-	.	.	.
.	.	20e-	.
.	.	20F	.
12EE-J	.	.	.
.	.	20G-JJ	.
.	32b-Jkk	.	.
=4	=4	=4	=4
12GnL	4b-	20b-LL	.
.	.	20B- 20en	.
12Dn	.	.	.
.	.	20dn	.
.	.	20G-	.
12EEnJ	.	.	.
.	.	20GnJJ	.
12B-L	4gn	20gLL	.
.	.	20B- 20e	.
12D	.	.	.
.	.	20d	.
.	.	20An	.
12EEJ	.	.	.
.	.	20B-JJ	.
12A-L	4a-	20a-LL	.
.	.	20c-X 20e	.
12D	.	.	.
.	.	20d	.
.	.	20G	.
12EEJ	.	.	.
.	.	20A-XJJ	.
=5	=5	=5	=5
12A-L	4cc	20ccLL	.
.	.	20dn 20gn	.
12BB-	.	.	.
.	.	20f	.
.	.	20Gn	.
12FFJ	.	.	.
.	.	20A-JJ	.
12FFFL	[4cc	20ccLL	.
.	.	20d 20g	.
12FF	.	.	.
.	.	20f	.
.	.	20G	.
12BB-J	.	.	.
.	.	20A-JJ	.
12A-L	8..ccL]	20ccLL	.
.	.	20d 20g	.
12BB-	.	.	.
.	.	20f	.
.	.	20G	.
12FFJ	.	.	.
.	.	20A-JJ	.
.	32ccJkk	.	.
=6	=6	=6	=6
12AnL	4cc	20ccLL	.
.	.	20c 20g-X	.
12F-X	.	.	.
.	.	20f-X	.
.	.	20A-	.
12GG-J	.	.	.
.	.	20AnJJ	.
12cL	4an	20aLL	.
.	.	20c 20g-	.
12F-	.	.	.
.	.	20f-	.
.	.	20Bn	.
12GG-J	.	.	.
.	.	20cJJ	.
12B-L	4b-	20b-LL	.
.	.	20d- 20fn	.
12E-	.	.	.
.	.	20e-	.
.	.	20An	.
12GGnJ	.	.	.
.	.	20B-XJJ	.
=7	=7	=7	=7
12B-L	4dd-	20dd-LL	.
.	.	20d- 20a-	.
12E-	.	.	.
.	.	20g-X	.
.	.	20An	.
12AA-XJ	.	.	.
.	.	20B-JJ	.
12AAA-XL	4ff	20ffLL	.
.	.	20d- 20a-	.
12AA-X	.	.	.
.	.	20g-	.
.	.	20An	.
12E-J	.	.	.
.	.	20B-JJ	.
12B-L	4ee-	20ee-LL	.
.	.	20d- 20a-	.
12E-	.	.	.
.	.	20g-	.
.	.	20An	.
12AA-XJ	.	.	.
.	.	20B-JJ	.
=8	=8	=8	=8
12G-L	[4b-	20b-LL	.
.	.	20c 20f	.
12AA-	.	.	.
.	.	20e-	.
.	.	20F	.
12AA-J	.	.	.
.	.	20G-JJ	.
12AAA-L	4b-]	20b-LL	.
.	.	20c 20f	.
12AA-	.	.	.
.	.	20e-	.
.	.	20F	.
12AA-J	.	.	.
.	.	20G-JJ	.
12G-L	8..a-L	20a-LL	.
.	.	20c 20f	.
12AA-J	.	.	.
.	.	20e-	.
.	.	20F	.
12r	.	.	.
.	.	20G-JJ	.
.	32anJkk	.	.
=9	=9	=9	=9
12G-L	4b-	20b-LL	.
.	.	20c 20f	.
12AA-	.	.	.
.	.	20e-	.
.	.	20F	.
12EE-J	.	.	.
.	.	20G-JJ	.
12EEE-L	[4b-	20b-LL	.
.	.	20c 20f	.
12EE-	.	.	.
.	.	20e-	.
.	.	20F	.
12AA-J	.	.	.
.	.	20G-JJ	.
12G-L	8..b-L]	20b-LL	.
.	.	20c 20f	.
12AA-	.	.	.
.	.	20e-	.
.	.	20F	.
12EE-J	.	.	.
.	.	20G-JJ	.
.	32b-Jkk	.	.
=10	=10	=10	=10
12FL	4b-	20b-LL	.
.	.	20Bn 20e-	.
12AA-	.	.	.
.	.	20dn	.
.	.	20En	.
12EE-J	.	.	.
.	.	20FJJ	.
12EEE-L	4gn	20gLL	.
.	.	20B 20e-	.
12EE-	.	.	.
.	.	20d	.
.	.	20E	.
12AA-J	.	.	.
.	.	20FJJ	.
12FL	4a-	20a-LL	.
.	.	20B 20e-	.
12AA-	.	.	.
.	.	20d	.
.	.	20E	.
12EE-J	.	.	.
.	.	20FJJ	.
=11	=11	=11	=11
12G-L	10b-L	20b-LL	.
.	.	20c	.
12AA-	.	.	.
.	10dn	20d	.
.	.	20G-	.
12EE-J	.	.	.
.	20e-Jk	20e-JJ	.
12EEE-L	[4b-	20b-LL	.
.	.	20c 20f	.
12EE-	.	.	.
.	.	20e-	.
.	.	20F	.
12AA-J	.	.	.
.	.	20G-JJ	.
12G-L	8..b-L]	20b-LL	.
.	.	20c 20f	.
12AA-	.	.	.
.	.	20e-	.
.	.	20F	.
12EE-J	.	.	.
.	.	20G-JJ	.
.	32b-Jkk	.	.
=12	=12	=12	=12
12GnL	4b-	20b-LL	.
.	.	20B- 20en	.
12Dn	.	.	.
.	.	20dn	.
.	.	20G-	.
12EEnJ	.	.	.
.	.	20GnJJ	.
12B-L	4gn	20gLL	.
.	.	20B- 20e	.
12D	.	.	.
.	.	20d	.
.	.	20An	.
12EEJ	.	.	.
.	.	20B-JJ	.
12A-L	4a-	20a-LL	.
.	.	20c-X 20e	.
12D	.	.	.
.	.	20d	.
.	.	20G	.
12EEJ	.	.	.
.	.	20A-XJJ	.
=13	=13	=13	=13
12A-L	4cc	20ccLL	.
.	.	20dn 20gn	.
12BB-	.	.	.
.	.	20f	.
.	.	20Gn	.
12FFJ	.	.	.
.	.	20A-JJ	.
12FFFL	[4cc	20ccLL	.
.	.	20d 20g	.
12FF	.	.	.
.	.	20f	.
.	.	20G	.
12BB-J	.	.	.
.	.	20A-JJ	.
12A-L	8..ccL]	20ccLL	.
.	.	20d 20g	.
12BB-	.	.	.
.	.	20f	.
.	.	20G	.
12FFJ	.	.	.
.	.	20A-JJ	.
.	32ccJkk	.	.
=14	=14	=14	=14
12AnL	4cc	20ccLL	.
.	.	20c 20g-X	.
12F-X	.	.	.
.	.	20f-X	.
.	.	20A-	.
12GG-J	.	.	.
.	.	20AnJJ	.
12cL	4an	20aLL	.
.	.	20c 20g-	.
12F-	.	.	.
.	.	20f-	.
.	.	20Bn	.
12GG-J	.	.	.
.	.	20cJJ	.
12B-L	4b-	20b-LL	.
.	.	20d- 20fn	.
12E-	.	.	.
.	.	20e-	.
.	.	20An	.
12GGnJ	.	.	.
.	.	20B-XJJ	.
=15	=15	=15	=15
12B-L	4dd-	20dd-LL	.
.	.	20d- 20a-	.
12E-	.	.	.
.	.	20g-	.
.	.	20An	.
12AA-XJ	.	.	.
.	.	20B-JJ	.
12AAA-XL	[4ff	20ffLL	.
.	.	20d- 20a-	.
12AA-	.	.	.
.	.	20g-	.
.	.	20An	.
12E-J	.	.	.
.	.	20B-JJ	.
12A-L	8..ffL]	20ffLL	.
.	.	20c 20a-	.
12E-	.	.	.
.	.	20g-	.
.	.	20Gn	.
12AA-J	.	.	.
.	.	20A-XJJ	.
.	32ee-Jkk	.	.
=16	=16	=16	=16
12A-L	4ee-	20ee-LL	.
.	.	20c 20g-	.
12F	.	.	.
.	.	20f	.
.	.	20Gn	.
12AA-J	.	.	.
.	.	20A-JJ	.
12DD-L	4dd-	20dd-LL	.
.	.	20d- 20g-	.
12AA-	.	.	.
.	.	20f	.
.	.	20G	.
12FJ	.	.	.
.	.	20A-JJ	.
12A-L	4a-	20a-LL	.
.	.	20d- 20g-	.
12F	.	.	.
.	.	20f	.
.	.	20A-	.
12AA-J	.	.	.
.	.	20d-JJ	.
*	*v	*v	*
=17||	=17||	=17||
*k[f#c#g#d#]	*k[f#c#g#d#]	*
*	*^	*
12BL	4dd#	20dd#LL	.
.	.	20e 20a#X	.
12E	.	.	.
.	.	20g#	.
.	.	20A#X	.
12GG#J	.	.	.
.	.	20BJJ	.
12CC#L	[4dd#	20dd#LL	.
.	.	20e 20a#	.
12GG#	.	.	.
.	.	20g#	.
.	.	20A#	.
12EJ	.	.	.
.	.	20BJJ	.
12BL	8..dd#L]	20dd#LL	.
.	.	20e 20a#	.
12E	.	.	.
.	.	20g#	.
.	.	20A#	.
12GG#J	.	.	.
.	.	20BJJ	.
.	32dd#Jkk	.	.
=18	=18	=18	=18
12BL	4dd#	20dd#LL	.
.	.	20e 20a#X	.
12E	.	.	.
.	.	20g#	.
.	.	20A#X	.
12GG#J	.	.	.
.	.	20BJJ	.
12CC#L	4f##X	20f##LL	.
.	.	20e	.
12GG#	.	.	.
.	.	20B	.
.	.	20A#	.
12EJ	.	.	.
.	.	20BJJ	.
12BL	4g#	20g#LL	.
.	.	20e	.
12E	.	.	.
.	.	20B	.
.	.	20A#	.
12GG#J	.	.	.
.	.	20BJJ	.
=19	=19	=19	=19
12A#XL	[4dd#	20dd#LL	.
.	.	20e 20a#X	.
12E	.	.	.
.	.	20g#	.
.	.	20An	.
12FF#J	.	.	.
.	.	20A#XJJ	.
12FFF#L	4dd#]	20dd#LL	.
.	.	20e 20g#	.
12FF#	.	.	.
.	.	20gn	.
.	.	20An	.
12EJ	.	.	.
.	.	20A#XJJ	.
12A#L	4dd#	20dd#LL	.
.	.	20e 20g	.
12E	.	.	.
.	.	20f#	.
.	.	20An	.
12FF#J	.	.	.
.	.	20A#XJJ	.
=20	=20	=20	=20
12A#XL	4cc#	20cc#LL	.
.	.	20d# 20g#X	.
12D#	.	.	.
.	.	20f#	.
.	.	20An	.
12FF#J	.	.	.
.	.	20A#XJJ	.
12BBBL	4b	20bLL	.
.	.	20d# 20g#	.
12FF#	.	.	.
.	.	20f#	.
.	.	20A#	.
12D#J	.	.	.
.	.	20BJJ	.
12BL	4f#	20f#LL	.
.	.	20d#	.
12D#	.	.	.
.	.	20B	.
.	.	20A#	.
12FF#J	.	.	.
.	.	20BJJ	.
=21	=21	=21	=21
12AnL	4cc#	20cc#LL	.
.	.	20dn 20g#	.
12Dn	.	.	.
.	.	20f#	.
.	.	20G#	.
12FF#J	.	.	.
.	.	20AJJ	.
12BBBL	[4cc#	20cc#LL	.
.	.	20d 20g#	.
12FF#	.	.	.
.	.	20f#	.
.	.	20G#	.
12DJ	.	.	.
.	.	20AJJ	.
12AL	8..cc#L]	20cc#LL	.
.	.	20d 20g#	.
12D	.	.	.
.	.	20f#	.
.	.	20G#	.
12FF#J	.	.	.
.	.	20AJJ	.
.	32cc#Jkk	.	.
=22	=22	=22	=22
12AL	4cc#	20cc#LL	.
.	.	20dn 20g#	.
12Dn	.	.	.
.	.	20f#	.
.	.	20G#	.
12FF#J	.	.	.
.	.	20AJJ	.
12BBBL	4e#X	20e#LL	.
.	.	20d	.
12FF#	.	.	.
.	.	20A	.
.	.	20G#	.
12DJ	.	.	.
.	.	20AJJ	.
12AL	4f#	20f#LL	.
.	.	20d	.
12D	.	.	.
.	.	20A	.
.	.	20G#	.
12FF#J	.	.	.
.	.	20AJJ	.
=23	=23	=23	=23
12G#L	[4cc#	20cc#LL	.
.	.	20dn 20g#	.
12Dn	.	.	.
.	.	20f#	.
.	.	20Gn	.
12EEJ	.	.	.
.	.	20G#XJJ	.
12EEEL	4cc#]	20cc#LL	.
.	.	20d 20f#	.
12EE	.	.	.
.	.	20fn	.
.	.	20Gn	.
12DJ	.	.	.
.	.	20G#XJJ	.
12G#L	4cc#	20cc#LL	.
.	.	20d 20f	.
12D	.	.	.
.	.	20e	.
.	.	20Gn	.
12EEJ	.	.	.
.	.	20G#XJJ	.
=24	=24	=24	=24
12G#L	4b	20bLL	.
.	.	20c# 20f#X	.
12C#	.	.	.
.	.	20e	.
.	.	20Gn	.
12EEJ	.	.	.
.	.	20G#XJJ	.
12AAAL	4a	20aLL	.
.	.	20c# 20f#	.
12EE	.	.	.
.	.	20e	.
.	.	20G#	.
12C#J	.	.	.
.	.	20AJJ	.
12AL	4g#	20g#LL	.
.	.	20c# 20f#	.
12C#	.	.	.
.	.	20e	.
.	.	20Gn	.
12EEJ	.	.	.
.	.	20G#XJJ	.
*	*v	*v	*
=25||	=25||	=25||
*k[b-e-a-d-g-]	*k[b-e-a-d-g-]	*
*	*^	*
12GnL	4gn	20gLL	.
.	.	20d- 20f-X	.
12D-	.	.	.
.	.	20e-	.
.	.	20G-X	.
12EE-J	.	.	.
.	.	20GnJJ	.
12EEE-L	[4g	20gLL	.
.	.	20d- 20f-	.
12EE-	.	.	.
.	.	20e-	.
.	.	20G-X	.
12D-J	.	.	.
.	.	20GnJJ	.
12GL	8..gL]	20gLL	.
.	.	20d- 20f-	.
12D-	.	.	.
.	.	20e-	.
.	.	20G-X	.
12EE-J	.	.	.
.	.	20GnJJ	.
.	32gJkk	.	.
=26	=26	=26	=26
12GnL	4cc	20ccLL	.
.	.	20d- 20gn	.
12AA-	.	.	.
.	.	20f	.
.	.	20G-X	.
12AA-J	.	.	.
.	.	20GnJJ	.
12AAA-L	4b-	20b-LL	.
.	.	20d- 20g	.
12AA-	.	.	.
.	.	20f	.
.	.	20G-X	.
12AA-J	.	.	.
.	.	20GnJJ	.
12GL	4b--	20b--LL	.
.	.	20d- 20g	.
12AA-	.	.	.
.	.	20f	.
.	.	20G-X	.
12AA-J	.	.	.
.	.	20GnJJ	.
=27	=27	=27	=27
12G-XL	4a-	20a-LL	.
.	.	20c 20g-X	.
12AA-	.	.	.
.	.	20f	.
.	.	20F	.
12AA-J	.	.	.
.	.	20G-JJ	.
12AAA-L	4f	20fLL	.
.	.	20c	.
12AA-	.	.	.
.	.	20G-	.
.	.	20F	.
12AA-J	.	.	.
.	.	20G-JJ	.
12G-L	4e-	20e-LL	.
.	.	20c	.
12AA-	.	.	.
.	.	20G-	.
.	.	20F	.
12AA-J	.	.	.
.	.	20G-JJ	.
=28	=28	=28	=28
12G-L	4e-	20e-LL	.
.	.	20B-	.
12BB-	.	.	.
.	.	20G-	.
.	.	20F	.
12BB-J	.	.	.
.	.	20G-JJ	.
12BBB-L	4c	20cLL	.
.	.	20B-	.
12BB-	.	.	.
.	.	20G-	.
.	.	20F	.
12BB-J	.	.	.
.	.	20G-JJ	.
12G-L	4d-	20d-LL	.
.	.	20F	.
12BB-	.	.	.
.	.	20G-	.
.	.	20B-	.
12G-J	.	.	.
.	.	20d-JJ	.
=29	=29	=29	=29
12r	4gn	20gLL	.
.	.	20d- 20f-X	.
12D-L	.	.	.
.	.	20e-	.
.	.	20G-X	.
12EE-J	.	.	.
.	.	20GnJJ	.
12EEE-L	[4g	20gLL	.
.	.	20d- 20f-	.
12EE-	.	.	.
.	.	20e-	.
.	.	20G-X	.
12D-J	.	.	.
.	.	20GnJJ	.
12GnL	8..gL]	20gLL	.
.	.	20d- 20f-	.
12D-	.	.	.
.	.	20e-	.
.	.	20G-X	.
12EE-J	.	.	.
.	.	20GnJJ	.
.	32gJkk	.	.
=30	=30	=30	=30
12GnL	4cc	20ccLL	.
.	.	20d- 20gn	.
12AA-	.	.	.
.	.	20f	.
.	.	20G-X	.
12AA-J	.	.	.
.	.	20GnJJ	.
12AAA-L	4b-	20b-LL	.
.	.	20d- 20g	.
12AA-	.	.	.
.	.	20f	.
.	.	20G-X	.
12AA-J	.	.	.
.	.	20GnJJ	.
12GL	4b--	20b--LL	.
.	.	20d- 20g	.
12AA-	.	.	.
.	.	20f	.
.	.	20G-X	.
12AA-J	.	.	.
.	.	20GnJJ	.
=31	=31	=31	=31
12G-XL	4a-	20a-LL	.
.	.	20c 20g-X	.
12AA-	.	.	.
.	.	20f	.
.	.	20F	.
12AA-J	.	.	.
.	.	20G-JJ	.
12AAA-L	4f	20fLL	.
.	.	20c	.
12AA-	.	.	.
.	.	20G-	.
.	.	20F	.
12AA-J	.	.	.
.	.	20G-JJ	.
12G-L	4e-	20e-LL	.
.	.	20c	.
12AA-	.	.	.
.	.	20G-	.
.	.	20F	.
12AA-J	.	.	.
.	.	20G-JJ	.
=32	=32	=32	=32
12FL	[4e-	20e-LL	.
.	.	20c	.
12AA-	.	.	.
.	.	20F	.
.	.	20En	.
12DD-J	.	.	.
.	.	20FJJ	.
12AA-L	4e-]	20e-LL	.
.	.	20c	.
12DD-	.	.	.
.	.	20F	.
.	.	20E	.
12AA-J	.	.	.
.	.	20FJJ	.
12FL	4d-	20d-LL	.
.	.	20A-	.
12AA-	.	.	.
.	.	20d-	.
.	.	20f	.
12FJ	.	.	.
.	.	20a-JJ	.
=33	=33	=33	=33
16c-XLL	4ee-	20ee-LL	.
.	.	20f 20b-	.
16F	.	.	.
.	.	20a-	.
16AA-	.	.	.
.	.	20B-	.
16DD-JJ	.	.	.
.	.	20c-XJJ	.
16DDD-LL	[4ee-	20ee-LL	.
.	.	20f 20b-	.
16DD-	.	.	.
.	.	20a-	.
16AA-	.	.	.
.	.	20B-	.
16FJJ	.	.	.
.	.	20c-JJ	.
16c-LL	8..ee-L]	20ee-LL	.
.	.	20f 20b-	.
16F	.	.	.
.	.	20a-	.
16AA-	.	.	.
.	.	20B-	.
16FJJ	.	.	.
.	.	20c-JJ	.
.	32ee-Jkk	.	.
=34	=34	=34	=34
16B-LL	4ee-	20ee-LL	.
.	.	20en 20a-	.
16En	.	.	.
.	.	20gn	.
16GGn	.	.	.
.	.	20An	.
16DD-JJ	.	.	.
.	.	20B-JJ	.
16DDD-LL	4cc	20ccLL	.
.	.	20e 20a-	.
16DD-	.	.	.
.	.	20g	.
16GG	.	.	.
.	.	20A	.
16EJJ	.	.	.
.	.	20B-JJ	.
16B-LL	4dd-	20dd-LL	.
.	.	20e 20a-	.
16E	.	.	.
.	.	20g	.
16GG	.	.	.
.	.	20A	.
16EJJ	.	.	.
.	.	20B-JJ	.
=35	=35	=35	=35
16c-XLL	10ee-L	20ee-LL	.
.	.	20f	.
16F	.	.	.
.	10gn	20g	.
16AA-	.	.	.
.	.	20c-X	.
16DD-JJ	.	.	.
.	20a-Jk	20a-JJ	.
16DDD-LL	[4ee-	20ee-LL	.
.	.	20f 20b-	.
16DD-	.	.	.
.	.	20a-	.
16AA-	.	.	.
.	.	20B-	.
16FJJ	.	.	.
.	.	20c-JJ	.
16c-LL	8..ee-L]	20ee-LL	.
.	.	20f 20b-	.
16F	.	.	.
.	.	20a-	.
16AA-	.	.	.
.	.	20B-	.
16FJJ	.	.	.
.	.	20c-JJ	.
.	32ee-Jkk	.	.
=36	=36	=36	=36
16B-LL	4ee-	20ee-LL	.
.	.	20en 20a-	.
16En	.	.	.
.	.	20gn	.
16GGn	.	.	.
.	.	20An	.
16DD-JJ	.	.	.
.	.	20B-JJ	.
16DDD-LL	4cc	20ccLL	.
.	.	20e 20a-	.
16DD-	.	.	.
.	.	20g	.
16GG	.	.	.
.	.	20A	.
16EJJ	.	.	.
.	.	20B-JJ	.
16B-LL	4dd-	20dd-LL	.
.	.	20e 20a-	.
16E	.	.	.
.	.	20g	.
16GG	.	.	.
.	.	20A	.
16EJJ	.	.	.
.	.	20B-JJ	.
=37	=37	=37	=37
16B--LL	10dd-L	20dd-LL	.
.	.	20e-	.
16E-	.	.	.
.	10f	20f	.
16GG-X	.	.	.
.	.	20B--	.
16DD-JJ	.	.	.
.	20g-Jk	20g-JJ	.
16DDD-LL	[4dd-	20dd-LL	.
.	.	20e- 20a-	.
16DD-	.	.	.
.	.	20g-	.
16GG-	.	.	.
.	.	20A-	.
16E-JJ	.	.	.
.	.	20B--JJ	.
16B--LL	8..dd-L]	20dd-LL	.
.	.	20e- 20a-	.
16E-	.	.	.
.	.	20g-	.
16GG-	.	.	.
.	.	20A-	.
16E-JJ	.	.	.
.	.	20B--JJ	.
.	32g-Jkk	.	.
=38	=38	=38	=38
16B--LL	4b--	20b--LL	.
.	.	20c 20g-	.
16C	.	.	.
.	.	20f-X	.
16GG-	.	.	.
.	.	20A-	.
16DD-JJ	.	.	.
.	.	20B--JJ	.
16DDD-LL	4a-	20a-LL	.
.	.	20c 20g-	.
16DD-	.	.	.
.	.	20f-	.
16GG-	.	.	.
.	.	20A-	.
16CJJ	.	.	.
.	.	20B--JJ	.
16B--LL	4g-	20g-LL	.
.	.	20c 20f-	.
16C	.	.	.
.	.	20e--	.
16GG-	.	.	.
.	.	20A-	.
16CJJ	.	.	.
.	.	20B--JJ	.
=39	=39	=39	=39
16A-LL	[4f	20fnLL	.
.	.	20A- 20e-X	.
16D-	.	.	.
.	.	20d-	.
16AA-	.	.	.
.	.	20F	.
16DD-JJ	.	.	.
.	.	20A-JJ	.
16DDD-LL	4f]	20fLL	.
.	.	20A- 20e-	.
16DD-	.	.	.
.	.	20d-	.
16AA-	.	.	.
.	.	20F	.
16D-JJ	.	.	.
.	.	20A-JJ	.
16A-LL	4f	20fLL	.
.	.	20A- 20e-	.
16D-	.	.	.
.	.	20d-	.
16AA-	.	.	.
.	.	20F	.
16D-JJ	.	.	.
.	.	20A-JJ	.
=40	=40	=40	=40
16D-LL	4f	20fLL	.
.	.	20A- 20e-	.
16AA-	.	.	.
.	.	20d-	.
16DD-	.	.	.
.	.	20F	.
16AA-JJ	.	.	.
.	.	20A-JJ	.
16FLL	4a-	20a-LL	.
.	.	20d- 20g-	.
16AA-	.	.	.
.	.	20f	.
16DD-	.	.	.
.	.	20A-	.
16AA-JJ	.	.	.
.	.	20d-JJ	.
16A-LL	4dd-	20dd-LL	.
.	.	20f 20b--	.
16D-	.	.	.
.	.	20a-	.
16AA-	.	.	.
.	.	20c	.
16A-JJ	.	.	.
.	.	20d-JJ	.
=41	=41	=41	=41
16B--LL	10dd-L	20dd-LL	.
.	.	20e-	.
16E-	.	.	.
.	10f	20f	.
16GG-X	.	.	.
.	.	20B--	.
16DD-JJ	.	.	.
.	20g-Jk	20g-JJ	.
16DDD-LL	[4dd-	20dd-LL	.
.	.	20e- 20a-	.
16DD-	.	.	.
.	.	20g-	.
16GG-	.	.	.
.	.	20A-	.
16E-JJ	.	.	.
.	.	20B--JJ	.
16B--LL	8..dd-L]	20dd-LL	.
.	.	20e- 20a-	.
16E-	.	.	.
.	.	20g-	.
16GG-	.	.	.
.	.	20A-	.
16E-JJ	.	.	.
.	.	20B--JJ	.
.	32g-Jkk	.	.
=42	=42	=42	=42
16B--LL	4b--	20b--LL	.
.	.	20c 20g-	.
16C	.	.	.
.	.	20f-X	.
16GG-	.	.	.
.	.	20A-	.
16DD-JJ	.	.	.
.	.	20B--JJ	.
16DDD-LL	4a-	20a-LL	.
.	.	20c 20g-	.
16DD-	.	.	.
.	.	20f-	.
16GG-	.	.	.
.	.	20A-	.
16CJJ	.	.	.
.	.	20B--JJ	.
16B--LL	4g-	20g-LL	.
.	.	20c 20f-	.
16C	.	.	.
.	.	20e--	.
16GG-	.	.	.
.	.	20A-	.
16CJJ	.	.	.
.	.	20B--JJ	.
=43	=43	=43	=43
16A-LL	4f	20fnLL	.
.	.	20A- 20e-X	.
16D-	.	.	.
.	.	20d-	.
16AA-	.	.	.
.	.	20F	.
16DD-JJ	.	.	.
.	.	20A-JJ	.
16DDD-LL	4f	20fLL	.
.	.	20A- 20e-	.
16DD-	.	.	.
.	.	20d-	.
16AA-	.	.	.
.	.	20F	.
16D-JJ	.	.	.
.	.	20A-JJ	.
16B--LL	4f	20fLL	.
.	.	20Gn 20e-	.
16D-	.	.	.
.	.	20d-	.
16BB--	.	.	.
.	.	20F	.
16D-JJ	.	.	.
.	.	20GJJ	.
=44	=44	=44	=44
16A-LL	4f	20fLL	.
.	.	20A- 20e-	.
16D-	.	.	.
.	.	20d-	.
16AA-	.	.	.
.	.	20F	.
16DD-JJ	.	.	.
.	.	20A-JJ	.
16DDD-LL	4f	20fLL	.
.	.	20A- 20e-	.
16DD-	.	.	.
.	.	20d-	.
16AA-	.	.	.
.	.	20F	.
16D-JJ	.	.	.
.	.	20A-JJ	.
16B--LL	4f	20fLL	.
.	.	20Gn 20e-	.
16D-	.	.	.
.	.	20d-	.
16BB--	.	.	.
.	.	20F	.
16D-JJ	.	.	.
.	.	20GJJ	.
=45	=45	=45	=45
16A-LL	4f	20fLL	.
.	.	20A- 20e-	.
16D-	.	.	.
.	.	20d-	.
16AA-	.	.	.
.	.	20F	.
16DD-JJ	.	.	.
.	.	20A-JJ	.
16DDD-LL	4f	20fLL	.
.	.	20A- 20e-	.
16DD-	.	.	.
.	.	20d-	.
16AA-	.	.	.
.	.	20F	.
16D-JJ	.	.	.
.	.	20A-JJ	.
16A-LL	4a-	20a-LL	.
.	.	20d- 20g-	.
16D-	.	.	.
.	.	20f	.
16AA-	.	.	.
.	.	20A-	.
16D-JJ	.	.	.
.	.	20d-JJ	.
=46	=46	=46	=46
16A-LL	4dd-	20dd-LL	.
.	.	20f 20b-	.
16F	.	.	.
.	.	20a-	.
16AA-	.	.	.
.	.	20d-	.
16FJJ	.	.	.
.	.	20fJJ	.
16d-LL	4ff	20ffLL	.
.	.	20a- 20ee-	.
16F	.	.	.
.	.	20dd-	.
16AA-	.	.	.
.	.	20f	.
16FJJ	.	.	.
.	.	20a-JJ	.
16d-LL	4aa-	20aa-LL	.
.	.	20dd- 20gg-	.
16F	.	.	.
.	.	20ff	.
16AA-	.	.	.
.	.	20a-	.
16FJJ	.	.	.
.	.	20dd-JJ	.
*	*v	*v	*
=47	=47	=47
4DDD- 4DD- 4AA- 4F 4d-	4a- 4ff 4ddd-	.
4r	4r	.
4r	4r	.
=48	=48	=48
2.r	2.r	.
==	==	==
*-	*-	*-
!!!system-decoration: {(*)}
!!!ENC: Bryan Jacob Bell
!!!END: November 2021 to April 2022
!!!PED: Konstantin Igumnov and Yakov Milstein
!!!PTL: A.N. Skryabin: Polnoe sobranie sochinenii dlia fortepiano (Muzgiz)
